flaticon/travel/postcards.svg

<svg xmlns="http://www.w3.org/2000/svg" width="32" height="32" viewBox="0 0 24 24">
    <path d="M 22.726562 6.042969 L 21.417969 1.15625 L 3.167969 6.042969 L 0 6.042969 L 0 22.84375 L 24 22.84375 L 24 6.042969 C 24 6.042969 22.726562 6.042969 22.726562 6.042969 Z M 20.851562 2.136719 L 21.898438 6.042969 L 6.257812 6.042969 Z M 23.199219 22.042969 L 0.800781 22.042969 L 0.800781 20.84375 L 1.601562 20.84375 C 1.820312 20.84375 2 20.664062 2 20.445312 C 2 20.222656 1.820312 20.042969 1.601562 20.042969 L 0.800781 20.042969 L 0.800781 18.84375 L 1.601562 18.84375 C 1.820312 18.84375 2 18.664062 2 18.445312 C 2 18.222656 1.820312 18.042969 1.601562 18.042969 L 0.800781 18.042969 L 0.800781 16.84375 L 1.601562 16.84375 C 1.820312 16.84375 2 16.664062 2 16.445312 C 2 16.222656 1.820312 16.042969 1.601562 16.042969 L 0.800781 16.042969 L 0.800781 14.84375 L 1.601562 14.84375 C 1.820312 14.84375 2 14.664062 2 14.445312 C 2 14.222656 1.820312 14.042969 1.601562 14.042969 L 0.800781 14.042969 L 0.800781 12.84375 L 1.601562 12.84375 C 1.820312 12.84375 2 12.664062 2 12.445312 C 2 12.222656 1.820312 12.042969 1.601562 12.042969 L 0.800781 12.042969 L 0.800781 10.84375 L 1.601562 10.84375 C 1.820312 10.84375 2 10.664062 2 10.445312 C 2 10.222656 1.820312 10.042969 1.601562 10.042969 L 0.800781 10.042969 L 0.800781 8.84375 L 1.601562 8.84375 C 1.820312 8.84375 2 8.664062 2 8.445312 C 2 8.222656 1.820312 8.042969 1.601562 8.042969 L 0.800781 8.042969 L 0.800781 6.84375 L 23.199219 6.84375 Z M 23.199219 22.042969"/>
    <path d="M11.601562 8.84375L12.398438 8.84375 12.398438 20.042969 11.601562 20.042969zM16.800781 17.644531L21.601562 17.644531 21.601562 18.445312 16.800781 18.445312zM16 19.246094L21.601562 19.246094 21.601562 20.042969 16 20.042969zM17.601562 12.84375L21.601562 12.84375 21.601562 8.84375 17.601562 8.84375zM18.398438 9.644531L20.800781 9.644531 20.800781 12.042969 18.398438 12.042969zM18.398438 9.644531"/>
</svg>

<svg xmlns="http://www.w3.org/2000/svg" width="32" height="32" viewBox="0 0 24 24">
    <path d="M22.727 6.043l-1.309-4.887-18.25 4.887H0v16.8h24v-16.8h-1.273zm-1.875-3.906l1.046 3.906H6.258zm2.347 19.906H.801v-1.2h.8a.4.4 0 0 0 0-.8h-.8v-1.2h.8a.4.4 0 0 0 0-.8h-.8v-1.2h.8a.4.4 0 0 0 0-.8h-.8v-1.2h.8a.4.4 0 0 0 0-.8h-.8v-1.2h.8a.4.4 0 0 0 0-.8h-.8v-1.2h.8a.4.4 0 0 0 0-.8h-.8v-1.2h.8a.4.4 0 0 0 0-.8h-.8v-1.2h22.398zm0 0"/>
    <path d="M11.602 8.844h.796v11.199h-.796zm0 0M16.8 17.645h4.802v.8H16.8zm0 0M16 19.246h5.602v.797H16zm0 0M17.602 12.844h4v-4h-4zm.796-3.2h2.403v2.399h-2.403zm0 0"/>
</svg>
